X:1
T:The Cock and the Hen
M:9/8
L:1/8
R:slip jig
O:Trad. (2.10.2014/NS)
K:F#m
|: "F#m" F2F FEF "C#m"(Bc)A |"F#m" F2F FEF     AFE | "F#m"F2F FEF "C#m" c2d | "D" ecA BAF "E" AFE :|
|: "A"   ecA ABc "D"  d2f   | "A"  ecA ABc "E" BAF | "A"  ecA ABc "D"   d2B | "D" cBA BAF     AFE :|
